X: 150109
T: One of Joe Burke's
S: Mike Reynolds
Z: B.Black
R: jig
M: 6/8
L: 1/8
K: Ddor
AGA DED | AGA cBc | AGE C3 | EDC EFG |
AGA DED | AGA cde | dcA GEC | DED D3 :|
Add dcd | cde gec | dcA GEG | AGA cAG |
Add dcd | cde gec | dcA AFE | DED D3 :|
